src/app/assets/svg/multimedia.svg

<?xml version="1.0" encoding="UTF-8"?>
<svg width="63px" height="40px" viewBox="0 0 63 40" version="1.1" xmlns="http://www.w3.org/2000/svg" xmlns:xlink="http://www.w3.org/1999/xlink">
    <title>optimize-circle copy 2</title>
    <defs>
        <polygon id="path-1" points="0.221153878 0.142058091 36.4946064 0.142058091 36.4946064 31.4460303 0.221153878 31.4460303"></polygon>
    </defs>
    <g id="Page-1" stroke="none" stroke-width="1" fill="none" fill-rule="evenodd">
        <g id="Blue-Sky-Product-Page" transform="translate(-741.000000, -3382.000000)">
            <g id="optimize-circle-copy-2" transform="translate(741.000000, 3382.000000)">
                <g id="optimize-icon" transform="translate(0.000000, -0.000000)">
                    <g id="Group-12" transform="translate(26.352941, 0.075518)">
                        <mask id="mask-2" fill="white">
                            <use xlink:href="#path-1"></use>
                        </mask>
                        <g id="Clip-11"></g>
                        <path d="M21.9043535,16.7610389 L14.4949607,19.9653568 C14.3041654,20.0390561 14.1049372,19.9867189 13.9773889,19.8574781 C13.8719772,19.7624167 13.8087301,19.6235629 13.8298125,19.4622789 L14.7996007,11.3553547 C14.8533607,10.9825858 15.2634124,10.8010078 15.5585654,11.02531 L22.0108194,15.9279163 C22.0413888,15.9482103 22.0730123,15.9813216 22.0940947,16.0133648 C22.1573417,16.0988133 22.1900194,16.2045557 22.1900194,16.3124344 C22.1900194,16.4940125 22.0940947,16.6755905 21.9043535,16.7610389 M33.9002121,3.79316465 L4.32167145,0.162672536 C2.70887148,-0.0306546407 1.24364798,1.13464895 1.05496092,2.76778294 L0.221153878,9.67949652 L6.387742,9.67949652 C9.18115371,9.67949652 11.4580478,11.9759243 11.4580478,14.8170861 L11.4580478,29.0752324 L30.6008239,31.4250655 C32.2136239,31.6183927 33.6788474,30.4530891 33.8791297,28.8199551 L36.4722591,7.11604225 C36.6725414,5.48077204 35.5130121,3.99717288 33.9002121,3.79316465" id="Fill-10" fill="#4273B9" mask="url(#mask-2)"></path>
                    </g>
                    <path d="M22.1251911,30.4333321 L20.9667159,28.6389141 L18.2892571,24.4519388 L15.7277512,27.8378346 L17.50921,28.9913891 L19.2790735,28.5641467 L20.3553276,29.5040799 L23.0749511,31.8752751 L24.7509981,30.7858071 L26.605191,30.7858071 C26.605191,30.7858071 24.3293511,27.2610574 24.1185276,27.1222037 C24.0226029,27.0581173 23.6441746,27.6562566 23.2436099,28.3718876 C22.7049558,29.3118209 22.1251911,30.4333321 22.1251911,30.4333321 Z" id="Fill-13" fill="#4273B9"></path>
                    <path d="M29.77935,36.6278125 L10.2992563,36.6278125 C9.05539748,36.6278125 8.3270022,35.1965506 9.05539748,34.1604878 L17.0656373,22.8706079 C17.6875667,21.9958292 18.9851855,22.0065102 19.5744373,22.9026511 L22.2318678,26.8653242 L22.9159902,25.8933478 C23.4008843,25.2108281 24.402296,25.2311221 24.8777031,25.9253909 L25.0769313,26.2137796 L25.1085548,26.268253 L25.4785501,26.8225999 L25.5196607,26.8760052 L30.7691665,34.7276521 C31.3067665,35.5383445 30.7491383,36.6278125 29.77935,36.6278125 M4.46893168,19.3789696 C4.46893168,17.3912244 6.06170342,15.7783845 8.02130809,15.7783845 C9.99250805,15.7783845 11.5736845,17.3912244 11.5736845,19.3789696 C11.5736845,21.3645786 9.99250805,22.9784866 8.02130809,22.9784866 C6.06170342,22.9784866 4.46893168,21.3645786 4.46893168,19.3789696 M32.7414206,11.9118409 L26.3218442,11.9118409 L2.94046112,11.9118409 C1.31817409,11.9118409 0.000527058814,13.2469734 0.000527058814,14.8918565 L0.000527058814,36.7559852 C0.000527058814,38.4008684 1.31817409,39.7360008 2.94046112,39.7360008 L32.7414206,39.7360008 C34.3647617,39.7360008 35.6824088,38.4008684 35.6824088,36.7559852 L35.6824088,28.8840444 L35.6824088,14.8918565 C35.6824088,13.2469734 34.3647617,11.9118409 32.7414206,11.9118409" id="Fill-15" fill="#4273B9"></path>
                </g>
            </g>
        </g>
    </g>
</svg>

<svg xmlns="http://www.w3.org/2000/svg" xmlns:xlink="http://www.w3.org/1999/xlink" width="63" height="40"><defs/><defs><path id="a" d="M.221.142h36.274v31.304H.221z"/></defs><g fill="none" fill-rule="evenodd"><g transform="translate(26.353 .076)"><mask id="b" fill="#fff"><use xlink:href="#a"/></mask><path fill="#4273B9" d="M21.904 16.761l-7.409 3.204a.48.48 0 01-.518-.108.445.445 0 01-.147-.395l.97-8.107c.053-.372.463-.554.759-.33l6.452 4.903a.32.32 0 01.083.085.503.503 0 01.096.3.485.485 0 01-.286.448M33.9 3.793L4.322.163c-1.613-.194-3.078.972-3.267 2.605L.221 9.679h6.167c2.793 0 5.07 2.297 5.07 5.138v14.258l19.143 2.35c1.613.193 3.078-.972 3.278-2.605l2.593-21.704A2.981 2.981 0 0033.9 3.793" mask="url(#b)"/></g><path fill="#4273B9" d="M22.125 30.433l-1.158-1.794-2.678-4.187-2.561 3.386 1.781 1.153 1.77-.427 1.076.94 2.72 2.371 1.676-1.09h1.854s-2.276-3.524-2.486-3.663c-.096-.064-.475.534-.875 1.25-.539.94-1.119 2.061-1.119 2.061z"/><path fill="#4273B9" d="M29.78 36.628H10.3c-1.245 0-1.973-1.431-1.245-2.468l8.01-11.29c.623-.874 1.92-.863 2.51.033l2.657 3.962.684-.972a1.19 1.19 0 011.962.032l.199.289.032.054.37.555.04.053 5.25 7.852c.538.81-.02 1.9-.99 1.9M4.47 19.379c0-1.988 1.593-3.6 3.552-3.6 1.972 0 3.553 1.612 3.553 3.6 0 1.986-1.581 3.6-3.553 3.6-1.96 0-3.552-1.614-3.552-3.6m28.272-7.467H2.941c-1.623 0-2.94 1.335-2.94 2.98v21.864c0 1.645 1.317 2.98 2.94 2.98h29.8c1.624 0 2.941-1.335 2.941-2.98V14.892c0-1.645-1.317-2.98-2.94-2.98"/></g></svg>
